X: 184
T: Drummond Castle
R: jig
M: 6/8
L: 1/8
K:Amin
"Am"ABA ~a3|age "C"~g3|~c3 edc|"G"Bdg dBG|
"Am"ABA ~a3|age "C"~g3|ege "G"deg|1edB "Am"AEG:|2edB A2 B||
|:"C"~c3 edc|"G"~d3 ded|"C"~c3 edc|"G"Bdg dBG|
"C"~c3 edc|"G"deg "Am"a2 a|age "G"deg|1 edB "Am"A2 B:|2 edB AEG|]


